src/assets/icons/app-explore.svg

<svg width="16" height="16" viewBox="0 0 16 16" fill="none" xmlns="http://www.w3.org/2000/svg">
<g clip-path="url(#clip0_8874_15270)">
<path fill-rule="evenodd" clip-rule="evenodd" d="M7.64584 0.00426428C5.31321 0.102473 3.14078 1.22291 1.68842 3.07684C0.662372 4.38657 0.0666457 6.00982 0.00679566 7.65891C-0.047078 9.14345 0.261557 10.5051 0.93895 11.7716C2.27653 14.2722 4.8401 15.8839 7.65596 15.9943C9.7538 16.0766 11.7097 15.3893 13.2747 14.0201C14.9249 12.5763 15.916 10.5071 15.9946 8.34135C16.0311 7.3351 15.9078 6.42439 15.6122 5.51708C14.8228 3.09417 12.9066 1.17801 10.4837 0.38864C9.82598 0.174345 9.08875 0.0369892 8.46304 0.0121758C8.32647 0.00676444 8.15694 -0.000188048 8.0863 -0.00327046C8.01566 -0.00635286 7.81746 -0.00296225 7.64584 0.00426428ZM6.91851 1.58674C5.75355 1.78316 4.64594 2.30528 3.7538 3.07862C3.59742 3.21416 3.23291 3.57561 3.09071 3.73613C2.98456 3.85595 2.79483 4.0975 2.79483 4.11282C2.79483 4.12039 3.03951 4.26763 3.33854 4.43999C4.06316 4.85767 4.07973 4.87024 4.18335 5.08075C4.25447 5.22521 4.28084 5.40021 4.25232 5.53835C4.1528 6.02013 3.64577 6.29044 3.21312 6.09238C3.16196 6.06895 2.87691 5.90959 2.57966 5.73826C2.28101 5.56609 2.0332 5.43353 2.02572 5.44194C2.00646 5.46362 1.92989 5.661 1.84107 5.918C1.68803 6.36075 1.57326 6.89761 1.52551 7.39413C1.49824 7.67781 1.49824 8.32245 1.52551 8.60613C1.65388 9.94104 2.18856 11.2078 3.04781 12.2128C3.20529 12.3969 3.56405 12.7572 3.7538 12.9216C4.53247 13.5966 5.45769 14.073 6.46547 14.3178C6.70915 14.377 7.13894 14.4561 7.21725 14.4561C7.24249 14.4561 7.24573 14.388 7.25124 13.7411C7.25804 12.942 7.25864 12.9375 7.38123 12.7607C7.70293 12.2969 8.40184 12.3388 8.66405 12.8378C8.74307 12.9882 8.74372 12.9949 8.75025 13.7411C8.75621 14.4234 8.75796 14.4561 8.78821 14.4561C8.80566 14.4561 8.93384 14.4368 9.07306 14.4132C10.2601 14.2121 11.3491 13.7004 12.2476 12.9216C12.4039 12.7861 12.7684 12.4247 12.9106 12.2641C13.0169 12.1442 13.2065 11.9028 13.2065 11.8874C13.2065 11.8798 12.9618 11.7327 12.6628 11.5604C12.1017 11.2372 11.9692 11.1516 11.9068 11.0723C11.8373 10.9839 11.7655 10.8126 11.7465 10.6898C11.6588 10.1233 12.2663 9.66896 12.7907 9.90902C12.8432 9.93304 13.1209 10.0885 13.4079 10.2544C13.6948 10.4204 13.941 10.5571 13.9549 10.5582C14.0254 10.5639 14.2968 9.71241 14.3964 9.17282C14.5327 8.43492 14.5327 7.56534 14.3964 6.82745C14.1885 5.70177 13.6872 4.6456 12.9535 3.78751C12.7961 3.60333 12.4373 3.2431 12.2476 3.07862C11.4852 2.41779 10.5859 1.94885 9.59716 1.69659C9.36526 1.63743 8.86896 1.5442 8.78589 1.5442C8.75869 1.5442 8.75604 1.59747 8.75025 2.25915C8.74372 3.00533 8.74307 3.01209 8.66405 3.16246C8.53333 3.41118 8.27996 3.56489 8.00068 3.56489C7.65021 3.56489 7.34284 3.31965 7.27148 2.98307C7.25367 2.89911 7.24771 2.70649 7.24749 2.20777L7.2472 1.5442L7.20011 1.54571C7.17421 1.54653 7.04749 1.56499 6.91851 1.58674ZM11.0574 3.98175C10.8767 4.05242 6.4213 6.08424 6.35445 6.12644C6.27235 6.17826 6.1788 6.27181 6.12698 6.3539C6.07975 6.4287 4.04297 10.8998 3.98065 11.0654C3.93115 11.197 3.92448 11.387 3.96462 11.5222C4.0721 11.8841 4.41962 12.1098 4.78883 12.0576C4.92375 12.0384 4.75446 12.1129 7.46615 10.8798C8.94179 10.2087 9.63971 9.88292 9.70163 9.83617C9.75114 9.79879 9.82 9.72679 9.85466 9.67617C9.9086 9.59738 11.9644 5.10262 12.0233 4.93485C12.1497 4.57429 11.9864 4.17952 11.6403 4.00917C11.5304 3.95509 11.5069 3.95014 11.3406 3.94603C11.1852 3.94218 11.1459 3.94714 11.0574 3.98175ZM8.55801 6.7652L7.32583 7.32529L6.76574 8.55746C6.45771 9.23517 6.2074 9.79144 6.20954 9.79363C6.21168 9.79582 6.76775 9.54538 7.44526 9.23709L8.67709 8.67655L9.23763 7.44472C9.54592 6.7672 9.79637 6.21114 9.79418 6.209C9.79198 6.20686 9.23571 6.45716 8.55801 6.7652Z" fill="currentColor"/>
</g>
<defs>
<clipPath id="clip0_8874_15270">
<rect width="16" height="16" fill="white"/>
</clipPath>
</defs>
</svg>

<svg xmlns="http://www.w3.org/2000/svg" width="16" height="16" fill="none">
  <g clip-path="url(#a)">
    <path fill="currentColor" fill-rule="evenodd" d="M7.646.004a7.994 7.994 0 0 0-5.958 3.073A7.947 7.947 0 0 0 .007 7.659c-.054 1.484.255 2.846.932 4.113a7.993 7.993 0 0 0 6.717 4.222c2.098.083 4.054-.605 5.619-1.974a7.966 7.966 0 0 0 2.72-5.679 7.97 7.97 0 0 0-.383-2.824A8.023 8.023 0 0 0 10.484.39 7.835 7.835 0 0 0 8.463.012a124.58 124.58 0 0 1-.377-.015c-.07-.003-.269 0-.44.007Zm-.727 1.583a6.513 6.513 0 0 0-3.165 1.492 10.26 10.26 0 0 0-.663.657c-.106.12-.296.361-.296.377 0 .007.245.155.544.327.724.418.74.43.844.64.071.145.098.32.07.458-.1.482-.607.752-1.04.554a17.76 17.76 0 0 1-.633-.354c-.299-.172-.547-.304-.554-.296-.02.022-.096.219-.185.476a6.67 6.67 0 0 0-.315 1.476 8.988 8.988 0 0 0 0 1.212 6.523 6.523 0 0 0 1.522 3.607c.157.184.516.544.706.709a6.454 6.454 0 0 0 2.711 1.396c.244.059.674.138.752.138.025 0 .029-.068.034-.715.007-.799.008-.803.13-.98a.752.752 0 0 1 1.283.077c.08.15.08.157.086.903.006.682.008.715.038.715.018 0 .146-.02.285-.043a6.473 6.473 0 0 0 3.175-1.491c.156-.136.52-.497.663-.658.106-.12.296-.361.296-.377a8.67 8.67 0 0 0-.544-.327c-.561-.323-.694-.408-.756-.488a.968.968 0 0 1-.16-.382c-.088-.567.52-1.021 1.044-.781.052.024.33.18.617.345.287.166.533.303.547.304.07.006.342-.846.441-1.385a6.777 6.777 0 0 0 0-2.346 6.51 6.51 0 0 0-1.443-3.04 9.075 9.075 0 0 0-.705-.708 6.466 6.466 0 0 0-2.65-1.382 7.261 7.261 0 0 0-.812-.153c-.027 0-.03.053-.036.715-.006.746-.007.753-.086.903a.747.747 0 0 1-1.393-.179c-.017-.084-.023-.277-.024-.775v-.664l-.047.002c-.026 0-.153.019-.281.04Zm4.138 2.395c-.18.07-4.636 2.102-4.703 2.144a.814.814 0 0 0-.227.228 377.52 377.52 0 0 0-2.146 4.711.793.793 0 0 0-.016.457.75.75 0 0 0 .824.536c.135-.02-.035.055 2.677-1.178 1.476-.671 2.174-.997 2.236-1.044a.825.825 0 0 0 .153-.16c.054-.079 2.11-4.573 2.168-4.741a.752.752 0 0 0-.383-.926c-.11-.054-.133-.059-.3-.063-.155-.004-.194.001-.283.036ZM8.558 6.765l-1.232.56-.56 1.232a89.606 89.606 0 0 0-.556 1.237c.002.002.558-.249 1.235-.557l1.232-.56.56-1.232c.309-.678.56-1.234.557-1.236-.002-.002-.558.248-1.236.556Z" clip-rule="evenodd"/>
  </g>
  <defs>
    <clipPath id="a">
      <path fill="#fff" d="M0 0h16v16H0z"/>
    </clipPath>
  </defs>
</svg>
